Exam-01/assets/images/cursor.svg

<svg width="19" height="25" viewBox="0 0 19 25" fill="none" xmlns="http://www.w3.org/2000/svg">
<path d="M6.62363 0C7.7772 0 8.76357 1.0083 8.76357 2.1875V7.06304C9.596 6.26519 11.1936 6.16724 12.2276 7.37061C13.3423 6.67295 14.8164 7.26577 15.2704 8.17383C17.6698 7.73564 18.75 9.24541 18.75 11.7188C18.75 11.8528 18.7401 12.367 18.7405 12.5C18.7487 15.5259 17.2236 16.2546 16.8696 18.5416C16.7814 19.1115 16.289 19.5312 15.7122 19.5312H7.33696L7.33691 19.5312C6.44014 19.5306 5.58452 19.0132 5.19605 18.1413C4.56157 16.7309 2.80161 13.4825 1.42051 12.8906C0.53208 12.5099 0.000390829 11.8465 2.04357e-07 10.9375C-0.000683389 9.2665 1.71377 8.11758 3.26699 8.78325C3.67515 8.9582 4.08096 9.18911 4.48369 9.47432V2.1875C4.48369 1.04248 5.48677 0 6.62363 0ZM6.64062 20.3125H16.0156C16.6628 20.3125 17.1875 20.8372 17.1875 21.4844V23.8281C17.1875 24.4753 16.6628 25 16.0156 25H6.64062C5.99341 25 5.46875 24.4753 5.46875 23.8281V21.4844C5.46875 20.8372 5.99341 20.3125 6.64062 20.3125ZM14.8438 21.6797C14.3044 21.6797 13.8672 22.1169 13.8672 22.6562C13.8672 23.1956 14.3044 23.6328 14.8438 23.6328C15.3831 23.6328 15.8203 23.1956 15.8203 22.6562C15.8203 22.1169 15.3831 21.6797 14.8438 21.6797Z" fill="black"/>
</svg>

<svg xmlns="http://www.w3.org/2000/svg" width="19" height="25" fill="none"><path fill="#000" d="M6.624 0c1.153 0 2.14 1.008 2.14 2.188v4.875c.832-.798 2.43-.896 3.464.308 1.114-.698 2.588-.105 3.042.803 2.4-.438 3.48 1.071 3.48 3.545 0 .134-.01.648-.01.781.009 3.026-1.516 3.755-1.87 6.042-.089.57-.581.99-1.158.99H7.337a2.344 2.344 0 0 1-2.141-1.39c-.634-1.411-2.394-4.66-3.775-5.251C.532 12.51 0 11.847 0 10.937c0-1.67 1.714-2.82 3.267-2.154.408.175.814.406 1.217.691V2.187C4.484 1.042 5.487 0 6.624 0Zm.017 20.313h9.375c.647 0 1.172.524 1.172 1.171v2.344c0 .647-.525 1.172-1.172 1.172H6.64a1.172 1.172 0 0 1-1.172-1.172v-2.344c0-.647.524-1.172 1.172-1.172Zm8.203 1.367a.977.977 0 1 0 0 1.953.977.977 0 0 0 0-1.953Z"/></svg>
